X: 318
T:Helas madame
N: Derived from Jos2713-Helas_madame.krn
C: Josquin des Prez
%%abc-version 2.0
%%abcx-abcm2ps-target-version 5.9.1 (29 Sep 2008)
%%abc-creator hum2abc beta
%%abcx-conversion-date 2019/02/12 16:15:54
%%abc-edited-by Jesse Rodin
%%abc-edited-by Jesse Rodin; Victoria Chang 2011/05/30
%%abcx-initial-encoding-date 2011/05/30/
%%humdrum-veritas 3783524759
%%humdrum-veritas-data 1312744290
%%linebreak <none>
%%barnumbers 0
L: 1/4
M: 2/1
Q: 1/2=120
V: 1 clef=treble
V: 2 clef=treble-8
V: 3 clef=bass
K: C
[V:1] z8 | 
[V:2] z8 | 
[V:3] D,8 | 
[V:1] z8 | 
[V:2] z8 | 
[V:3] E,4E,4 | 
[V:1] z8 | 
[V:2] D8 | 
[V:3] F,6E,D, | 
[V:1] z8 | 
[V:2] E4E4 | 
[V:3] C,4C,4 | 
[V:1] D8 | 
[V:2] F6ED | 
[V:3] D,8 | 
[V:1] E4E4 | 
[V:2] C4C4 | 
[V:3] A,,4C,4 | 
[V:1] F6ED | 
[V:2] D8 | 
[V:3] _B,,8 | 
[V:1] C4C4 | 
[V:2] E4F4- | 
[V:3] A,,8 | 
[V:1] D4E4- | 
[V:2] F4G4- | 
[V:3] D,4C,4- | 
[V:1] E2D2D4- | 
[V:2] G2F2D4 | 
[V:3] C,2D,2_B,,4 | 
[V:1] D4^C4 | 
[V:2] E8 | 
[V:3] A,,8 | 
[V:1] D8- | 
[V:2] D8 | 
[V:3] A,8 | 
[V:1] D8 | 
[V:2] z8 | 
[V:3] B,4B,4 | 
[V:1] z8 | 
[V:2] A8 | 
[V:3] C6B,A, | 
[V:1] z8 | 
[V:2] B4B4 | 
[V:3] G,4G,4 | 
[V:1] A8 | 
[V:2] c6BA | 
[V:3] A,8 | 
[V:1] B4B4 | 
[V:2] G4G4 | 
[V:3] E,4G,4 | 
[V:1] c6BA | 
[V:2] A8 | 
[V:3] F,8 | 
[V:1] G4G4 | 
[V:2] B4c4- | 
[V:3] E,8 | 
[V:1] A4B4- | 
[V:2] c4d4- | 
[V:3] A,4G,4 | 
[V:1] B2A2A4- | 
[V:2] d2c2A4 | 
[V:3] F,8 | 
[V:1] A4^G4 | 
[V:2] B8 | 
[V:3] E,8 | 
[V:1] A8- | 
[V:2] A8 | 
[V:3] z4F,4 | 
[V:1] A8 | 
[V:2] z4D4 | 
[V:3] D,4F,4 | 
[V:1] z8 | 
[V:2] E4G4 | 
[V:3] E,8 | 
[V:1] z4D4 | 
[V:2] F8 | 
[V:3] D,8 | 
[V:1] E4G4 | 
[V:2] E8 | 
[V:3] z4C,4 | 
[V:1] F8 | 
[V:2] z4D4- | 
[V:3] D,8 | 
[V:1] E8 | 
[V:2] D4C4 | 
[V:3] A,,8 | 
[V:1] z4D4- | 
[V:2] D4F4 | 
[V:3] z8 | 
[V:1] D4C4 | 
[V:2] E8 | 
[V:3] A,,8 | 
[V:1] D4F4- | 
[V:2] z4A4- | 
[V:3] D,8 | 
[V:1] F2E2E4- | 
[V:2] A4G4 | 
[V:3] A,,4C,4 | 
[V:1] E4D4 | 
[V:2] F8 | 
[V:3] D,8 | 
[V:1] E8 | 
[V:2] E8 | 
[V:3] z4G,4 | 
[V:1] z8 | 
[V:2] A4G4 | 
[V:3] F,2D,2E,4 | 
[V:1] A4G4 | 
[V:2] F2D2E4 | 
[V:3] D,2F,2C,4 | 
[V:1] F2D2E4 | 
[V:2] D4C4 | 
[V:3] D,4A,,4 | 
[V:1] D4D4 | 
[V:2] F4G4 | 
[V:3] _B,,8 | 
[V:1] C4C4 | 
[V:2] A8 | 
[V:3] A,,8 | 
[V:1] D4E4- | 
[V:2] F4G4- | 
[V:3] D,4C,4 | 
[V:1] E2D2D4- | 
[V:2] G2F2D4 | 
[V:3] _B,,8 | 
[V:1] D2^CB,C4 | 
[V:2] E8 | 
[V:3] A,,8 | 
[V:1] D8 ||  
[V:2] D8 ||  
[V:3] A,8 ||  
[V:1] z8 | 
[V:2] D8 | 
[V:3] z8 | 
[V:1] z8 | 
[V:2] F4G4 | 
[V:3] z8 | 
[V:1] z4E4 | 
[V:2] A8 | 
[V:3] z8 | 
[V:1] F8 | 
[V:2] z4A4 | 
[V:3] D,4D,4- | 
[V:1] z4E4 | 
[V:2] A8 | 
[V:3] D,4z4 | 
[V:1] F8 | 
[V:2] z4A4 | 
[V:3] D,4D,4 | 
[V:1] E4E2F2- | 
[V:2] A4G2F2 | 
[V:3] A,,3B,,C,2D,2 | 
[V:1] F2ED^C4 | 
[V:2] D4E4 | 
[V:3] B,,4A,,4 | 
[V:1] D8 | 
[V:2] D8- | 
[V:3] z4A,4 | 
[V:1] z4A4 | 
[V:2] D8 | 
[V:3] A,8 | 
[V:1] A8 | 
[V:2] z4d4 | 
[V:3] z4D,4 | 
[V:1] z4F4 | 
[V:2] d8 | 
[V:3] D,8 | 
[V:1] G4E4 | 
[V:2] B4c4 | 
[V:3] z4A,4 | 
[V:1] F4G2A2- | 
[V:2] d4e2f2- | 
[V:3] D,2F,2E,2D,2- | 
[V:1] A2GFE4 | 
[V:2] f2ed^c4 | 
[V:3] D,E,F,G,A,4 | 
[V:1] D8 | 
[V:2] d4D4 | 
[V:3] D,8 | 
[V:1] z4C4 | 
[V:2] E8 | 
[V:3] z4A,,4 | 
[V:1] D8 | 
[V:2] z4D4 | 
[V:3] _B,,8 | 
[V:1] z4C4 | 
[V:2] E8 | 
[V:3] z4A,,4 | 
[V:1] D8 | 
[V:2] z4D4 | 
[V:3] _B,,8 | 
[V:1] z4C4 | 
[V:2] E4E2F2- | 
[V:3] A,,8 | 
[V:1] F4G2A2- | 
[V:2] F2EDC4 | 
[V:3] z8 | 
[V:1] AGA2B2c2- | 
[V:2] F4G2A2- | 
[V:3] z8 | 
[V:1] cBA4^G2 | 
[V:2] A2c2B4 | 
[V:3] z8 | 
[V:1] A8 | 
[V:2] A4A4 | 
[V:3] z4A,,4 | 
[V:1] z4D4 | 
[V:2] F4G4 | 
[V:3] _B,,4B,,4 | 
[V:1] C4C4 | 
[V:2] A3GE4 | 
[V:3] A,,4A,,4 | 
[V:1] D4E4 | 
[V:2] D4z4 | 
[V:3] _B,,4C,4 | 
[V:1] F6E2- | 
[V:2] A4F2G2- | 
[V:3] D,6C,2- | 
[V:1] EDD4^C2 | 
[V:2] GFD2E4 | 
[V:3] C,D,_B,,2A,,4 | 
[V:1] D8- | 
[V:2] D8 | 
[V:3] z4D,4 | 
[V:1] D8 | 
[V:2] z4d4 | 
[V:3] D,8- | 
[V:1] z4A4 | 
[V:2] d8 | 
[V:3] D,8 | 
[V:1] A8 | 
[V:2] z4A4 | 
[V:3] D,4F,4 | 
[V:1] z4A4 | 
[V:2] G4F4 | 
[V:3] E,4D,4 | 
[V:1] G4F4 | 
[V:2] E4A4 | 
[V:3] z4F,4 | 
[V:1] E4A4 | 
[V:2] G2E2F4 | 
[V:3] C,4D,4 | 
[V:1] G2E2F4 | 
[V:2] E4z4 | 
[V:3] E,2C,2D,4 | 
[V:1] E8 | 
[V:2] z4A4 | 
[V:3] A,,8- | 
[V:1] z4E4 | 
[V:2] c8 | 
[V:3] A,,8 | 
[V:1] G8 | 
[V:2] z4G4 | 
[V:3] z4E,4 | 
[V:1] z4G4 | 
[V:2] B8 | 
[V:3] E,8 | 
[V:1] A8 | 
[V:2] z4A4 | 
[V:3] z4F,4 | 
[V:1] z4D4 | 
[V:2] B4B4 | 
[V:3] G,4G,4 | 
[V:1] E4E4 | 
[V:2] c4c4 | 
[V:3] C,4E,4 | 
[V:1] F4G2A2- | 
[V:2] d4e2f2- | 
[V:3] D,4z2D,2- | 
[V:1] A2GFE4 | 
[V:2] f2ed^c4 | 
[V:3] D,E,F,G,A,4 | 
[V:1] D8 | 
[V:2] d8- | 
[V:3] D,8- | 
[V:1] z4A4 | 
[V:2] d8 | 
[V:3] D,8- | 
[V:1] A4A4 | 
[V:2] z4A4 | 
[V:3] D,8 | 
[V:1] G2A4GF | 
[V:2] c8- | 
[V:3] z4A,4 | 
[V:1] E8 | 
[V:2] c8 | 
[V:3] A,8- | 
[V:1] z4A4 | 
[V:2] z4A4 | 
[V:3] A,8 | 
[V:1] A4G2A2- | 
[V:2] c8 | 
[V:3] z8 | 
[V:1] A2GFE3F | 
[V:2] c4c4 | 
[V:3] A,,3B,,C,3D, | 
[V:1] G2A4^G2 | 
[V:2] B2A2B4 | 
[V:3] E,2F,2E,4 | 
[V:1] A8- | 
[V:2] A8 | 
[V:3] F,8 | 
[V:1] A8 | 
[V:2] z4d4 | 
[V:3] D,8- | 
[V:1] z4D4 | 
[V:2] d8 | 
[V:3] D,8 | 
[V:1] E8 | 
[V:2] z4A4 | 
[V:3] A,4A,4- | 
[V:1] z8 | 
[V:2] A8 | 
[V:3] A,4z4 | 
[V:1] E4F4 | 
[V:2] A4A4- | 
[V:3] A,,4D,4 | 
[V:1] E2F4ED | 
[V:2] A4D4 | 
[V:3] C,2D,4C,B,, | 
[V:1] C3DE2F2- | 
[V:2] A3Bc2A2- | 
[V:3] A,,8- | 
[V:1] F2ED^C4 | 
[V:2] A2GFE4 | 
[V:3] A,,8 | 
[V:1] D8- | 
[V:2] D8 | 
[V:3] z4D,4 | 
[V:1] D8 | 
[V:2] z4D4 | 
[V:3] D,8- | 
[V:1] z4A,4 | 
[V:2] F8 | 
[V:3] D,8 | 
[V:1] C8 | 
[V:2] z4E4 | 
[V:3] z4A,,4 | 
[V:1] C4D4 | 
[V:2] F4F4 | 
[V:3] A,,4B,,4 | 
[V:1] D4E4 | 
[V:2] G4G4 | 
[V:3] G,,4C,4- | 
[V:1] E4F4 | 
[V:2] A4A4 | 
[V:3] C,4D,4 | 
[V:1] G2A4GF | 
[V:2] G2c4B2 | 
[V:3] E,2F,2D,4 | 
[V:1] !fermata!E8 | 
[V:2] !fermata!c8 | 
[V:3] !fermata!C,8 | 
[V:1] z8 | 
[V:2] z8 | 
[V:3] z8 | 
[V:1] E6F2 | 
[V:2] c8 | 
[V:3] A,,8 | 
[V:1] G4G4 | 
[V:2] B4B4 | 
[V:3] E,4E,4 | 
[V:1] A4A4 | 
[V:2] A4A4 | 
[V:3] F,4F,4 | 
[V:1] A4A4 | 
[V:2] c4d4 | 
[V:3] F,4F,4 | 
[V:1] G3AB2c2- | 
[V:2] e4d2e2- | 
[V:3] E,4z2A,,2- | 
[V:1] c2BA^G4 | 
[V:2] e2dcB4 | 
[V:3] A,,B,,C,D,E,4 | 
[V:1] A8 | 
[V:2] A8 | 
[V:3] A,,8 | 
[V:1] z4A4 | 
[V:2] z4A4 | 
[V:3] z4F,4 | 
[V:1] G2A4GF | 
[V:2] c4c4 | 
[V:3] E,2F,4E,D, | 
[V:1] E4E4 | 
[V:2] c6B2 | 
[V:3] C,8 | 
[V:1] E4E2F2- | 
[V:2] A4G2A2- | 
[V:3] z8 | 
[V:1] FEDCD4 | 
[V:2] AGFEF4 | 
[V:3] z8 | 
[V:1] E8- | 
[V:2] E8 | 
[V:3] z4A,,4 | 
[V:1] E8 | 
[V:2] z4A4 | 
[V:3] A,,8 | 
[V:1] z4C4 | 
[V:2] A8 | 
[V:3] z4A,,4 | 
[V:1] D8 | 
[V:2] z4D4 | 
[V:3] _B,,8 | 
[V:1] z4C4 | 
[V:2] E8 | 
[V:3] z4A,,4 | 
[V:1] D8 | 
[V:2] z4D4 | 
[V:3] _B,,8 | 
[V:1] z4E4 | 
[V:2] F4G4 | 
[V:3] D,4C,3_B,, | 
[V:1] F4G2A2- | 
[V:2] A4B2c2- | 
[V:3] A,,4G,,2F,,2 | 
[V:1] A2GFE2F2- | 
[V:2] c2BAG2A2- | 
[V:3] A,,2B,,2C,2F,,2- | 
[V:1] F2ED^C4 | 
[V:2] A2GFE4 | 
[V:3] F,,2G,,2A,,4 | 
[V:1] D8- | 
[V:2] D8- | 
[V:3] z4D,4 | 
[V:1] D8 |]  
[V:2] D8 |]  
[V:3] D,8 |]  



